X: 1
T: Kesh, The
C: Trad
R: Jig
L: 1/8
M: 6/8
K: G
Z: ABC transcription by Verge Roller, later edited by Mackin to a simpler version more in keeping with the wider uni folk community 
|: D | "G" G3 GAB | "D" A3 ABd | "G" edd gdd | "G" edB "D" dBA |
"G" G2 G GAB | "D" ABA ABd | "G" edd "Bm" gdB | "D" BAF "G" G2 :|
|: A | "G" B2 B d2 d | "C" ege "G" dBG | "G" B2 B dBG | "D" ABA AGA |
"G" BAB dB#d | "C" ege "G" dBd | "G" gfg "D" aga | "G" bgg g2 :|
r: 32
